X: 1
T:Ostinelli's -- Reel
M:2/4
L:1/16
R:reel
B:Ryan's Mammoth Collection
N:311
Z:Contributed by Ray Davies,  ray:davies99.freeserve.co.uk
K:A
"_mf"vcd|\
.e.A.f.A .e.A."1"a.A | "3".c'.A."1"a.A "0".e.A.f.A | \
eagf edcd | edcd Bcd^d |
.e.A.f.A .e.A."1"a.A | "3".c'.A."1"a.A "0".e.A.f.A |\
eagf edcB | Aaec A2 :|
|:"_f"vED|\
C"4"AEc A"4"eca | "0"e"0"e'"3"c'"1"a "0"e"3"c'"1"a"0"e |\
 caec A"4"ecA | dcBA GFED |
C"4"AEc A"4"eca | "0"e"0"e'"3"c'"1"a "0"e"3"c'"1"a"0"e |\
 caec Bdgf | (3efe (3dcB A2:|
